icons/icon-upload.svg

<svg viewBox="0 0 896 704" fill="none" xmlns="http://www.w3.org/2000/svg">
<path d="M454.3 299C453.552 298.044 452.596 297.271 451.504 296.739C450.413 296.207 449.214 295.931 448 295.931C446.786 295.931 445.588 296.207 444.496 296.739C443.405 297.271 442.448 298.044 441.7 299L329.7 440.7C328.777 441.879 328.204 443.294 328.047 444.784C327.89 446.273 328.155 447.776 328.812 449.122C329.47 450.468 330.492 451.601 331.763 452.393C333.034 453.185 334.503 453.603 336 453.6H409.9V696C409.9 700.4 413.5 704 417.9 704H477.9C482.3 704 485.9 700.4 485.9 696V453.7H560C566.7 453.7 570.4 446 566.3 440.8L454.3 299Z" fill="currentColor"/>
<path d="M747.4 206.7C701.6 85.9 584.9 0 448.2 0C311.5 0 194.8 85.8 149 206.6C63.3 229.1 0 307.2 0 400C0 510.5 89.5 600 199.9 600H240C244.4 600 248 596.4 248 592V532C248 527.6 244.4 524 240 524H199.9C166.2 524 134.5 510.6 110.9 486.3C87.4 462.1 74.9 429.5 76 395.7C76.9 369.3 85.9 344.5 102.2 323.6C118.9 302.3 142.3 286.8 168.3 279.9L206.2 270L220.1 233.4C228.7 210.6 240.7 189.3 255.8 170C270.707 150.871 288.365 134.055 308.2 120.1C349.3 91.2 397.7 75.9 448.2 75.9C498.7 75.9 547.1 91.2 588.2 120.1C608.1 134.1 625.7 150.9 640.6 170C655.7 189.3 667.7 210.7 676.3 233.4L690.1 269.9L727.9 279.9C782.1 294.5 820 343.8 820 400C820 433.1 807.1 464.3 783.7 487.7C772.224 499.243 758.573 508.394 743.536 514.625C728.5 520.856 712.376 524.043 696.1 524H656C651.6 524 648 527.6 648 532V592C648 596.4 651.6 600 656 600H696.1C806.5 600 896 510.5 896 400C896 307.3 832.9 229.3 747.4 206.7Z" fill="currentColor"/>
</svg>

<svg viewBox="0 0 896 704" fill="none" xmlns="http://www.w3.org/2000/svg"><path d="M454.3 299a7.996 7.996 0 00-6.3-3.069 8 8 0 00-6.3 3.069l-112 141.7a7.982 7.982 0 006.3 12.9h73.9V696c0 4.4 3.6 8 8 8h60c4.4 0 8-3.6 8-8V453.7H560c6.7 0 10.4-7.7 6.3-12.9L454.3 299z" fill="currentColor"/><path d="M747.4 206.7C701.6 85.9 584.9 0 448.2 0S194.8 85.8 149 206.6C63.3 229.1 0 307.2 0 400c0 110.5 89.5 200 199.9 200H240c4.4 0 8-3.6 8-8v-60c0-4.4-3.6-8-8-8h-40.1c-33.7 0-65.4-13.4-89-37.7-23.5-24.2-36-56.8-34.9-90.6.9-26.4 9.9-51.2 26.2-72.1 16.7-21.3 40.1-36.8 66.1-43.7l37.9-9.9 13.9-36.6c8.6-22.8 20.6-44.1 35.7-63.4a245.592 245.592 0 0152.4-49.9c41.1-28.9 89.5-44.2 140-44.2s98.9 15.3 140 44.2c19.9 14 37.5 30.8 52.4 49.9 15.1 19.3 27.1 40.7 35.7 63.4l13.8 36.5 37.8 10C782.1 294.5 820 343.8 820 400c0 33.1-12.9 64.3-36.3 87.7a123.067 123.067 0 01-87.6 36.3H656c-4.4 0-8 3.6-8 8v60c0 4.4 3.6 8 8 8h40.1C806.5 600 896 510.5 896 400c0-92.7-63.1-170.7-148.6-193.3z" fill="currentColor"/></svg>
